X:630
T:Seanahmac Tube Station
R:jig
C:John Carty
Z:Transcribed by Dave Marshall
M:6/8
K:Gdor
|: ~G3 GFD |GAc ~d3 | dcA cAF | GFD CDF |
~G3 GFD |GAc ~d3 | dcA cAF |1 ~G3 ABA :|2 ~G3 GAc
| ~d3 dcA | ~c3 cAc | dcA cAF | GFD CDF |
~d3 dcA | ~c3 fcf | dcA cAF | ~G3 GAc |
~d3 dcA | ~c3 cAc | dcA cAF | GFD CDF |
GFD GFD | GFD dcA | dcA dcA | ~G3 ABA |
